assets/Rose/Flat/rose_flat.svg

<svg width="32" height="32" viewBox="0 0 32 32" fill="none" xmlns="http://www.w3.org/2000/svg">
<path d="M15 30H18.8667C22.1428 30 24.8297 27.4548 24.9995 24.3194C25.0095 24.1452 24.8796 24 24.6998 24L21.1939 24.0097C19.4899 24.0214 17.9504 24.8725 17 26.1688L17 22L18.34 21.35C18.61 21.22 18.61 20.83 18.34 20.7L17 20.03V18.23H15V24.96L13.65 25.63C13.38 25.76 13.38 26.15 13.65 26.28L15 26.95L15 30Z" fill="#86D72F"/>
<path d="M14.79 12.13H15.65C15.69 12.13 15.73 12.12 15.77 12.11C15.84 12.14 15.91 12.17 15.99 12.17H16.86C18.99 12.17 20.72 10.44 20.72 8.31V2.54C20.72 2.26 20.5 2.04 20.22 2.04H19.35C17.78 2.04 16.44 2.98 15.83 4.32C15.24 2.95 13.89 2 12.31 2H11.45C11.16 2 10.93 2.23 10.93 2.51V8.27C10.93 10.4 12.66 12.13 14.79 12.13Z" fill="#CA0B4A"/>
<path d="M11 4.5C11 4.5 14 4.5 16 7.5C18 4.5 21 4.5 21 4.5H22.1126C22.7951 4.5 23.2211 5.14636 22.9176 5.75772C22.484 6.63105 22 7.71181 22 9C22 9.94427 22.2229 10.5542 22.4583 11.1981C22.7214 11.918 23 12.6803 23 14C23 16.5 22 19 16 19C10 19 8.99998 16.5 9 14C9.00001 12.9692 9.25001 12.2346 9.5 11.5C9.75 10.7654 10 10.0308 10 9C10 7.79863 9.63918 6.77767 9.24264 5.93712C8.92547 5.2648 9.37465 4.5 10.118 4.5H11Z" fill="#F8312F"/>
</svg>

<svg xmlns="http://www.w3.org/2000/svg" width="32" height="32" fill="none"><path fill="#86D72F" d="M15 30h3.867c3.276 0 5.963-2.545 6.133-5.68a.297.297 0 0 0-.3-.32l-3.506.01A5.266 5.266 0 0 0 17 26.169V22l1.34-.65c.27-.13.27-.52 0-.65L17 20.03v-1.8h-2v6.73l-1.35.67c-.27.13-.27.52 0 .65l1.35.67V30Z"/><path fill="#CA0B4A" d="M14.79 12.13h.86c.04 0 .08-.01.12-.02.07.03.14.06.22.06h.87c2.13 0 3.86-1.73 3.86-3.86V2.54c0-.28-.22-.5-.5-.5h-.87c-1.57 0-2.91.94-3.52 2.28A3.824 3.824 0 0 0 12.31 2h-.86c-.29 0-.52.23-.52.51v5.76c0 2.13 1.73 3.86 3.86 3.86Z"/><path fill="#F8312F" d="M11 4.5s3 0 5 3c2-3 5-3 5-3h1.113c.682 0 1.108.646.805 1.258C22.484 6.63 22 7.712 22 9c0 .944.223 1.554.458 2.198.263.72.542 1.482.542 2.802 0 2.5-1 5-7 5s-7-2.5-7-5c0-1.03.25-1.765.5-2.5.25-.735.5-1.47.5-2.5 0-1.201-.36-2.222-.757-3.063-.318-.672.132-1.437.875-1.437H11Z"/></svg>
